svg/fluentui-system-icons/ic_fluent_showerhead_32_filled.svg

<svg width="32" height="32" viewBox="0 0 32 32" fill="none" xmlns="http://www.w3.org/2000/svg">
<path d="M28.3773 6.62329L25.4938 9.50675C25.0982 8.92968 24.6441 8.38067 24.1315 7.86802C23.6186 7.35518 23.0694 6.9009 22.4921 6.50518L25.3756 3.62166C26.2045 2.79278 27.5484 2.79278 28.3772 3.62166C29.2061 4.45054 29.2061 5.79441 28.3773 6.62329ZM7.70711 19.7071C8.09763 19.3166 8.09763 18.6834 7.70711 18.2929C7.31658 17.9024 6.68342 17.9024 6.29289 18.2929L3.29289 21.2929C2.90237 21.6834 2.90237 22.3166 3.29289 22.7071C3.68342 23.0976 4.31658 23.0976 4.70711 22.7071L7.70711 19.7071ZM10.7071 21.2929C11.0976 21.6834 11.0976 22.3166 10.7071 22.7071L7.70711 25.7071C7.31658 26.0976 6.68342 26.0976 6.29289 25.7071C5.90237 25.3166 5.90237 24.6834 6.29289 24.2929L9.29289 21.2929C9.68342 20.9024 10.3166 20.9024 10.7071 21.2929ZM13.7071 25.7071C14.0976 25.3166 14.0976 24.6834 13.7071 24.2929C13.3166 23.9024 12.6834 23.9024 12.2929 24.2929L9.29289 27.2929C8.90237 27.6834 8.90237 28.3166 9.29289 28.7071C9.68342 29.0976 10.3166 29.0976 10.7071 28.7071L13.7071 25.7071ZM8.23706 9.62163C7.40264 8.82403 6.07953 8.83546 5.25912 9.65592C4.42716 10.4879 4.42718 11.8368 5.25916 12.6688L19.3554 26.7649C20.1874 27.5969 21.5363 27.5969 22.3683 26.7649C23.1965 25.9367 23.2002 24.5963 22.3795 23.7634L22.3691 23.7518L8.27292 9.65557C8.26125 9.64391 8.24892 9.63297 8.23706 9.62163ZM9.33358 8.59491L9.30801 8.56959C13.2337 5.02761 19.2904 5.14739 23.0719 8.92893C26.8534 12.7104 26.9732 18.767 23.4314 22.6927L23.4298 22.6911L9.33358 8.59491Z" fill="#212121"/>
</svg>

<svg xmlns="http://www.w3.org/2000/svg" width="32" height="32"><path d="m28.377 6.623-2.883 2.884a11.566 11.566 0 0 0-3.002-3.002l2.884-2.883a2.122 2.122 0 0 1 3.001 3.001ZM7.707 19.707a1 1 0 1 0-1.414-1.414l-3 3a1 1 0 1 0 1.414 1.414l3-3Zm3 1.586a1 1 0 0 1 0 1.414l-3 3a1 1 0 0 1-1.414-1.414l3-3a1 1 0 0 1 1.414 0Zm3 4.414a1 1 0 0 0-1.414-1.414l-3 3a1 1 0 1 0 1.414 1.414l3-3ZM8.237 9.622a2.13 2.13 0 0 0-2.978 3.047l14.096 14.096a2.13 2.13 0 0 0 3.024-3.002l-.01-.011L8.273 9.656l-.036-.034Zm1.097-1.027-.026-.025c3.926-3.542 9.982-3.423 13.764.359 3.781 3.781 3.901 9.838.36 13.764l-.002-.002L9.334 8.595Z"/></svg>
